X: 11531
T: Eddie Moloney's Favourite
R: reel
M: 4/4
K: Edorian
B2 GB EBGB|A2 FA DAFA|BAGF EFGA|Bdef gfed|
B2 GB EFGB|A2 FA DAFA|BAGF EFGA|B2 BA Bdef||
g2 gf gfed|B2 BA Bdef|g2 gf gfed|B2 A=c BE E2|
g2 gf gfed|B2 BA G3 F|E2 EF G2 GA|Bdef gfed||

